X:94
T: ROSENSTOCK HOLDERBLUETH
N: F0203A
O: Europa, Mitteleuropa, Deutschland, Schwaben
R: Tanz - Lied, Liebe
M: 3/4
L: 1/8
K: C
 | E3DCE, | A,2G,F,D,2 |
A,2G,F,D,2 | A,2G,E,C,2 |
E3DCE, | A,2G,F,D,2 |
G,2A,2B,2 | C4z2 |
FED4 | EDC4 |
G,2A,2B,2 | CB,CDE2 |
FED4 | EDC4 |
G,2A,2B,2 | C4z2

@@@ Tune index: 5525
